svg/mono/verve.svg

<svg height="471" viewBox="0 0 750 471" width="750" xmlns="http://www.w3.org/2000/svg"><path d="m269.059229 191.663172c-10.98058-52.22062-57.309641-91.426642-112.795759-91.426642-63.6582567 0-115.26347 51.605213-115.26347 115.26347s51.6052133 115.26347 115.26347 115.26347c37.270711 0 70.409781-17.689659 91.479246-45.131012 11.713781 19.330989 33.090728 26.962452 55.994154 26.962452 24.0583 0 41.24194-6.87394 41.24194-6.87394l-3.43733-27.4942s-17.18365 5.16013-34.36743 5.16013c-34.36866 0-36.08666-25.78124-36.08666-25.78124h77.32874c3.43587-20.62097 0-72.17346-51.55249-72.17346-10.322343 0-19.714631 2.170094-27.804411 6.230972zm-229.059229-191.663172h670c22.09139 0 40 17.90861 40 40v391c0 22.09139-17.90861 40-40 40h-670c-22.09139 0-40-17.90861-40-40v-391c0-22.09139 17.90861-40 40-40zm116.26347 264.87251c25.77978-58.44077 44.6849-113.0323 44.6849-113.0323h39.52474s-24.05687 70.07163-68.74177 157.70044h-30.93573c-44.6849-87.62881-68.74177-157.70044-68.74177-157.70044h39.52473s18.90512 54.59153 44.6849 113.0323zm551.78168-7.26685c3.43733-20.62097 0-72.17346-51.55255-72.17346-34.36885 0-58.42572 24.05758-58.42572 61.86305 0 48.11516 30.93157 65.29966 65.299 65.29966 24.0583 0 41.24337-6.87394 41.24337-6.87394l-3.43733-27.4942s-17.18507 5.16013-34.36885 5.16013c-34.36866 0-36.08666-25.78124-36.08666-25.78124zm-53.27044-48.11588c22.33892 0 24.05687 24.05758 24.05687 24.05758h-48.11517s1.71795-24.05758 24.0583-24.05758zm-212.44101 7.25845 5.15514-27.49491s-39.81248-12.0813-72.17346 10.31056v109.97679h34.37014l-.00271-89.35582c13.74644-10.31042 32.65089-3.43662 32.65089-3.43662zm-147.18944-7.25845c-22.33892 0-24.05687 24.05758-24.05687 24.05758h48.11517s-1.71796-24.05758-24.0583-24.05758zm230.65929 58.83395c-10.68307-25.981877-19.301841-52.7653-25.77626-80.1015l-34.366.00454s17.18371 66.34494 46.39864 121.31943h27.48724c29.21495-54.97449 46.39864-121.3072 46.39864-121.3072h-34.366c-6.475853 27.330341-15.0946 54.10808-25.77626 80.08473z" fill="#393939"/></svg>

<svg width="750" height="471" viewBox="0 0 750 471" version="1.1" xmlns="http://www.w3.org/2000/svg" xmlns:xlink="http://www.w3.org/1999/xlink">
    <!-- Generator: Sketch 48.2 (47327) - http://www.bohemiancoding.com/sketch -->
    <desc>Created with Sketch.</desc>
    <defs></defs>
    <g id="Page-1" stroke="none" stroke-width="1" fill="none" fill-rule="evenodd">
        <path d="M269.059229,191.663172 C258.078649,139.442552 211.749588,100.23653 156.26347,100.23653 C92.6052133,100.23653 41,151.841743 41,215.5 C41,279.158257 92.6052133,330.76347 156.26347,330.76347 C193.534181,330.76347 226.673251,313.073811 247.742716,285.632458 C259.456497,304.963447 280.833444,312.59491 303.73687,312.59491 C327.79517,312.59491 344.97881,305.72097 344.97881,305.72097 L341.54148,278.22677 C341.54148,278.22677 324.35783,283.3869 307.17405,283.3869 C272.80539,283.3869 271.08739,257.60566 271.08739,257.60566 L348.41613,257.60566 C351.852,236.98469 348.41613,185.4322 296.86364,185.4322 C286.541297,185.4322 277.149009,187.602294 269.059229,191.663172 Z M40,-1.42108547e-14 L710,-1.42108547e-14 C732.09139,-1.82689772e-14 750,17.90861 750,40 L750,431 C750,453.09139 732.09139,471 710,471 L40,471 C17.90861,471 -1.15054397e-14,453.09139 -1.42108547e-14,431 L-1.42108547e-14,40 C-1.69162697e-14,17.90861 17.90861,-1.01527322e-14 40,-1.42108547e-14 Z M156.26347,264.87251 C182.04325,206.43174 200.94837,151.84021 200.94837,151.84021 L240.47311,151.84021 C240.47311,151.84021 216.41624,221.91184 171.73134,309.54065 L140.79561,309.54065 C96.11071,221.91184 72.05384,151.84021 72.05384,151.84021 L111.57857,151.84021 C111.57857,151.84021 130.48369,206.43174 156.26347,264.87251 Z M708.04515,257.60566 C711.48248,236.98469 708.04515,185.4322 656.4926,185.4322 C622.12375,185.4322 598.06688,209.48978 598.06688,247.29525 C598.06688,295.41041 628.99845,312.59491 663.36588,312.59491 C687.42418,312.59491 704.60925,305.72097 704.60925,305.72097 L701.17192,278.22677 C701.17192,278.22677 683.98685,283.3869 666.80307,283.3869 C632.43441,283.3869 630.71641,257.60566 630.71641,257.60566 L708.04515,257.60566 Z M654.77471,209.48978 C677.11363,209.48978 678.83158,233.54736 678.83158,233.54736 L630.71641,233.54736 C630.71641,233.54736 632.43436,209.48978 654.77471,209.48978 Z M442.3337,216.74823 L447.48884,189.25332 C447.48884,189.25332 407.67636,177.17202 375.31538,199.56388 L375.31538,309.54067 L409.68552,309.54067 L409.68281,220.18485 C423.42925,209.87443 442.3337,216.74823 442.3337,216.74823 Z M295.14426,209.48978 C272.80534,209.48978 271.08739,233.54736 271.08739,233.54736 L319.20256,233.54736 C319.20256,233.54736 317.4846,209.48978 295.14426,209.48978 Z M525.80355,268.32373 C515.12048,242.341853 506.501709,215.55843 500.02729,188.22223 L465.66129,188.22677 C465.66129,188.22677 482.845,254.57171 512.05993,309.5462 L539.54717,309.5462 C568.76212,254.57171 585.94581,188.239 585.94581,188.239 L551.57981,188.239 C545.103957,215.569341 536.48521,242.34708 525.80355,268.32373 Z" id="Combined-Shape" fill="#393939" fill-rule="nonzero"></path>
    </g>
</svg>
